packages/bpk-svgs/src/icons/sm/city.svg

<svg xmlns="http://www.w3.org/2000/svg" viewBox="0 0 18 18" enable-background="new 0 0 18 18"><path d="M5 7v8h8v-8c0-2.2-1.8-4-4-4s-4 1.8-4 4zm3 6h-1v-2h1v2zm0-3h-1v-2h1v2zm0-3h-1v-2h1v2zm3 6h-1v-2h1v2zm0-3h-1v-2h1v2zm0-3h-1v-2h1v2zm-10 1v7h3v-7h-3zm2 6h-1v-1h1v1zm0-2h-1v-1h1v1zm0-2h-1v-1h1v1zm12.5-4c-.8 0-1.5.7-1.5 1.5v7.5h1v-2h1v2h1v-7.5c0-.8-.7-1.5-1.5-1.5zm.5 6h-1v-2h1v2zm0-3h-1v-2h1v2z"/></svg>

<svg xmlns="http://www.w3.org/2000/svg" viewBox="0 0 18 18"><path d="M5 7v8h8V7c0-2.2-1.8-4-4-4S5 4.8 5 7zm3 6H7v-2h1v2zm0-3H7V8h1v2zm0-3H7V5h1v2zm3 6h-1v-2h1v2zm0-3h-1V8h1v2zm0-3h-1V5h1v2zM1 8v7h3V8H1zm2 6H2v-1h1v1zm0-2H2v-1h1v1zm0-2H2V9h1v1zm12.5-4c-.8 0-1.5.7-1.5 1.5V15h1v-2h1v2h1V7.5c0-.8-.7-1.5-1.5-1.5zm.5 6h-1v-2h1v2zm0-3h-1V7h1v2z"/></svg>
